images/029-car-service-2-1.svg

<svg width="79" height="79" viewBox="0 0 79 79" fill="none" xmlns="http://www.w3.org/2000/svg">
<path d="M72.9741 34.5008C72.9729 34.4893 72.9718 34.4779 72.9701 34.4667C72.9641 34.4242 72.9555 34.3822 72.9445 34.3407C72.9434 34.3369 72.942 34.3333 72.9409 34.3295C72.93 34.2916 72.9171 34.2544 72.9022 34.2179C72.8982 34.208 72.8939 34.1982 72.8895 34.1885C72.8752 34.156 72.8592 34.124 72.8416 34.0926C72.8375 34.0857 72.834 34.0786 72.83 34.0717C72.8076 34.0342 72.7831 33.9981 72.7564 33.9636C72.7525 33.9587 72.7482 33.9542 72.7443 33.9494C72.7216 33.9212 72.6975 33.8941 72.672 33.8683C72.6619 33.8581 72.6515 33.8482 72.6411 33.8384C72.6308 33.8285 72.6606 33.8191 72.6502 33.8101L61.873 24.3897V22.2926C61.873 19.7004 59.6882 17.5898 57.0968 17.5898H55.29L40.1689 5.67239C39.9764 5.52049 39.7379 5.43861 39.4927 5.44021C39.2476 5.44181 39.0102 5.52679 38.8197 5.68118L24.1416 17.5898H21.9032C19.3118 17.5898 17.127 19.7012 17.127 22.2926V23.101L6.29963 33.791H6.31892C6.12111 34.0996 6.01758 34.3232 6.01758 34.6242V67.9559C6.01687 69.3797 6.56054 70.75 7.53725 71.7861C7.54064 71.7906 7.54357 71.7954 7.54712 71.7999C7.59162 71.8611 7.64155 71.9182 7.69633 71.9705C8.7394 73.0076 10.1486 73.5928 11.6195 73.5996H67.3804C68.8699 73.5885 70.2947 72.989 71.344 71.9318C72.3934 70.8746 72.9823 69.4454 72.9824 67.9559V34.6242C72.9824 34.6169 72.9812 34.61 72.981 34.6029C72.9803 34.5683 72.978 34.5343 72.9741 34.5008ZM61.873 27.254L70.162 34.4731L61.873 39.5746V27.254ZM39.5097 7.90213L51.8005 17.5898H27.5699L39.5097 7.90213ZM19.2871 24.0021L19.3203 23.9694L19.2871 23.9359V22.2926C19.2871 20.8918 20.5028 19.75 21.9032 19.75H24.7906L24.8369 19.8072L24.9075 19.75H54.5412L54.5777 19.7788L54.6004 19.75H57.0968C58.4972 19.75 59.7129 20.8918 59.7129 22.2926V24.5588C59.6386 24.6365 59.5972 24.7399 59.5972 24.8474C59.5972 24.9549 59.6386 25.0583 59.7129 25.136V40.9041L41.3452 52.185C40.7924 52.5213 40.1577 52.6989 39.5106 52.6986C38.8635 52.6982 38.229 52.5198 37.6765 52.1829L19.2871 40.871V24.0021ZM17.127 26.1403V39.5382L8.7889 34.3927L17.127 26.1403ZM8.17774 67.9559V36.5066L31.6171 50.9704L8.58323 69.5746C8.31647 69.0768 8.17716 68.5206 8.17774 67.9559ZM67.3804 71.4394H11.6195C11.1151 71.4328 10.6184 71.3151 10.1646 71.0949L33.5661 52.1832L36.5613 54.0261C37.4436 54.5739 38.4615 54.8642 39.5001 54.8644C40.5387 54.8645 41.5567 54.5745 42.4392 54.027L45.3863 52.2119L68.7917 71.1154C68.3496 71.3224 67.8685 71.4329 67.3804 71.4394ZM70.8223 67.9559C70.8229 68.5353 70.6762 69.1054 70.3961 69.6127L47.3383 51.0105L70.8223 36.5563V67.9559Z" fill="#8A1A10"/>
<path d="M47.832 42.887C47.832 43.8572 48.6712 44.5918 49.6416 44.5918H51.7048C52.6751 44.5918 53.541 43.8572 53.541 42.887V41.3053C53.9582 41.1089 54.3147 40.8034 54.5727 40.4211C54.8308 40.0389 54.9807 39.594 55.0068 39.1335L55.8128 32.8908C55.816 32.8437 55.816 32.7965 55.8128 32.7494C55.8128 30.9367 54.5998 29.394 53.0011 29.051L52.8195 28.6992H53.757C54.0434 28.6992 54.3182 28.5854 54.5207 28.3829C54.7233 28.1803 54.8371 27.9056 54.8371 27.6191C54.8371 27.3327 54.7233 27.058 54.5207 26.8554C54.3182 26.6529 54.0434 26.5391 53.757 26.5391H51.6476L50.5998 24.6617C49.7508 23.1399 48.4975 21.4473 46.322 21.4473H32.7921C31.036 21.4473 29.4995 22.5591 28.4628 24.6776L27.3815 26.5391H24.9189C24.6325 26.5391 24.3577 26.6529 24.1552 26.8554C23.9526 27.058 23.8388 27.3327 23.8388 27.6191C23.8388 27.9056 23.9526 28.1803 24.1552 28.3829C24.3577 28.5854 24.6325 28.6992 24.9189 28.6992H26.1625L25.9885 29.0345C24.3787 29.3656 23.1973 30.8933 23.1973 32.749C23.1972 32.7944 23.2001 32.8397 23.2058 32.8847L23.9583 39.13C23.9891 40.1238 24.6875 40.9683 25.4589 41.3181V42.887C25.4589 43.8572 26.3244 44.5918 27.2951 44.5918H29.3586C30.3286 44.5918 31.1679 43.8572 31.1679 42.887V41.5059H47.832V42.887ZM51.3808 42.4316H49.9921V41.5059H51.3808V42.4316ZM30.36 25.7123C30.371 25.6927 30.3815 25.6992 30.3909 25.6792C30.7709 24.8955 31.5881 23.6074 32.7918 23.6074H46.3217C47.1529 23.6074 47.8679 24.2263 48.7067 25.7299L50.0344 28.1637C50.0468 28.1887 50.06 28.2084 50.0744 28.2323L50.4979 29.0078H49.5399C49.3216 28.174 48.8332 27.4361 48.1509 26.9094C47.4686 26.3828 46.631 26.0971 45.7691 26.0971C44.9072 26.0971 44.0696 26.3828 43.3874 26.9094C42.7051 27.4361 42.2166 28.174 41.9983 29.0078H28.5015L30.36 25.7123ZM47.1974 29.0078H44.3407C44.5001 28.7763 44.7134 28.587 44.9622 28.4562C45.2111 28.3254 45.4879 28.2571 45.769 28.2571C46.0501 28.2571 46.327 28.3254 46.5758 28.4562C46.8247 28.587 47.038 28.7763 47.1974 29.0078ZM29.0078 42.4316H27.6191V41.5059H29.0078V42.4316ZM26.4343 39.3457C26.3599 39.3431 26.2893 39.3119 26.2374 39.2586C26.1854 39.2052 26.156 39.1339 26.1553 39.0595C26.1553 39.0131 26.1524 38.9667 26.1467 38.9206L25.3583 32.6909C25.3818 31.956 25.8297 31.2193 26.57 31.162C26.5974 31.164 26.6242 31.1684 26.6518 31.1684H52.2933C52.2984 31.1684 52.3032 31.1672 52.3088 31.1672C53.1103 31.1672 53.6147 31.9442 53.6417 32.6879L52.819 38.9112C52.8127 38.9605 52.8096 39.0102 52.8096 39.0599C52.8088 39.1344 52.7793 39.2056 52.7272 39.2589C52.6752 39.3121 52.6046 39.3432 52.5302 39.3457H26.4343Z" fill="#8A1A10"/>
<path d="M44.3059 35.4883H34.6941C34.4076 35.4883 34.1329 35.6021 33.9304 35.8046C33.7278 36.0072 33.614 36.2819 33.614 36.5684C33.614 36.8548 33.7278 37.1295 33.9304 37.3321C34.1329 37.5346 34.4076 37.6484 34.6941 37.6484H44.3059C44.5923 37.6484 44.867 37.5346 45.0696 37.3321C45.2721 37.1295 45.3859 36.8548 45.3859 36.5684C45.3859 36.2819 45.2721 36.0072 45.0696 35.8046C44.867 35.6021 44.5923 35.4883 44.3059 35.4883Z" fill="#8A1A10"/>
<path d="M29.0502 32.9115C28.4841 32.9115 27.9307 33.0794 27.46 33.3939C26.9894 33.7084 26.6225 34.1554 26.4059 34.6784C26.1892 35.2014 26.1325 35.7769 26.243 36.3321C26.3534 36.8873 26.626 37.3973 27.0263 37.7976C27.4266 38.1979 27.9366 38.4705 28.4918 38.5809C29.047 38.6914 29.6225 38.6347 30.1455 38.418C30.6685 38.2014 31.1155 37.8345 31.43 37.3639C31.7445 36.8932 31.9124 36.3398 31.9124 35.7737C31.9116 35.0149 31.6098 34.2873 31.0732 33.7507C30.5366 33.2141 29.809 32.9123 29.0502 32.9115ZM29.0502 36.4758C28.9113 36.4758 28.7756 36.4346 28.6602 36.3574C28.5447 36.2803 28.4547 36.1707 28.4016 36.0424C28.3484 35.9141 28.3345 35.7729 28.3616 35.6367C28.3887 35.5006 28.4556 35.3755 28.5538 35.2773C28.652 35.1791 28.777 35.1122 28.9132 35.0851C29.0494 35.0581 29.1906 35.072 29.3189 35.1251C29.4471 35.1782 29.5568 35.2682 29.6339 35.3837C29.7111 35.4991 29.7522 35.6349 29.7522 35.7737C29.752 35.9598 29.678 36.1383 29.5464 36.2699C29.4148 36.4015 29.2363 36.4756 29.0502 36.4758Z" fill="#8A1A10"/>
<path d="M49.9496 32.9115C49.3835 32.9115 48.8301 33.0794 48.3595 33.3939C47.8888 33.7084 47.5219 34.1554 47.3053 34.6784C47.0886 35.2014 47.032 35.7769 47.1424 36.3321C47.2528 36.8873 47.5254 37.3973 47.9257 37.7976C48.326 38.1979 48.836 38.4705 49.3912 38.5809C49.9464 38.6914 50.5219 38.6347 51.0449 38.418C51.5679 38.2014 52.0149 37.8345 52.3294 37.3639C52.644 36.8932 52.8118 36.3398 52.8118 35.7737C52.811 35.0149 52.5091 34.2873 51.9725 33.7508C51.436 33.2142 50.7085 32.9124 49.9496 32.9115ZM49.9496 36.4758C49.8108 36.4758 49.675 36.4346 49.5596 36.3574C49.4441 36.2803 49.3541 36.1707 49.301 36.0424C49.2479 35.9141 49.234 35.7729 49.261 35.6367C49.2881 35.5006 49.355 35.3755 49.4532 35.2773C49.5514 35.1791 49.6765 35.1122 49.8126 35.0851C49.9488 35.0581 50.09 35.072 50.2183 35.1251C50.3466 35.1782 50.4562 35.2682 50.5333 35.3837C50.6105 35.4991 50.6517 35.6349 50.6517 35.7737C50.6515 35.9598 50.5774 36.1383 50.4458 36.2699C50.3142 36.4015 50.1357 36.4756 49.9496 36.4758Z" fill="#8A1A10"/>
</svg>

<svg width="79" height="79" fill="none" xmlns="http://www.w3.org/2000/svg"><path d="M72.974 34.5l-.004-.033a1.082 1.082 0 00-.025-.126l-.004-.011a1.098 1.098 0 00-.1-.237l-.011-.021a1.088 1.088 0 00-.074-.108l-.012-.015a1.068 1.068 0 00-.103-.11c-.01-.01.02-.02.01-.029l-10.778-9.42v-2.097c0-2.593-2.185-4.703-4.776-4.703H55.29L40.169 5.672a1.08 1.08 0 00-1.35.01L24.143 17.59h-2.239c-2.591 0-4.776 2.111-4.776 4.703v.808L6.3 33.791h.019c-.198.309-.301.532-.301.833v33.332a5.58 5.58 0 001.52 3.83l.01.014c.044.061.094.118.148.17a5.601 5.601 0 003.924 1.63h55.76a5.644 5.644 0 005.602-5.644V34.624l-.001-.021a1.07 1.07 0 00-.007-.102zm-11.101-7.246l8.289 7.22-8.289 5.1v-12.32zM39.51 7.902L51.8 17.59H27.57l11.94-9.688zm-20.223 16.1l.033-.033-.033-.033v-1.643c0-1.401 1.216-2.543 2.616-2.543h2.888l.046.057.07-.057h29.634l.037.029.022-.029h2.497c1.4 0 2.616 1.142 2.616 2.543v2.266a.418.418 0 000 .577v15.768L41.345 52.185a3.527 3.527 0 01-3.669-.002L19.287 40.87V24.002zm-2.16 2.138v13.398l-8.338-5.145 8.338-8.253zm-8.95 41.816v-31.45l23.44 14.464L8.583 69.575a3.42 3.42 0 01-.405-1.62zm59.203 3.483H11.62a3.436 3.436 0 01-1.455-.344l23.401-18.912 2.995 1.843a5.573 5.573 0 005.878.001l2.947-1.815 23.406 18.903a3.436 3.436 0 01-1.412.324zm3.442-3.483c0 .58-.146 1.15-.426 1.657L47.338 51.01l23.484-14.455v31.4z" fill="#8A1A10"/><path d="M47.832 42.887c0 .97.84 1.705 1.81 1.705h2.063c.97 0 1.836-.735 1.836-1.705v-1.582a2.56 2.56 0 001.466-2.172l.806-6.242a1.043 1.043 0 000-.142c0-1.812-1.213-3.355-2.812-3.698l-.181-.352h.937a1.08 1.08 0 000-2.16h-2.11L50.6 24.662c-.85-1.522-2.102-3.215-4.278-3.215h-13.53c-1.756 0-3.293 1.112-4.33 3.23l-1.08 1.862h-2.463a1.08 1.08 0 000 2.16h1.244l-.175.335c-1.61.332-2.79 1.86-2.79 3.715 0 .045.002.09.008.136l.752 6.245c.031.994.73 1.838 1.5 2.188v1.569c0 .97.866 1.705 1.837 1.705h2.064c.97 0 1.809-.735 1.809-1.705v-1.381h16.664v1.381zm3.549-.455h-1.389v-.926h1.389v.926zM30.36 25.712c.011-.02.021-.013.03-.033.38-.784 1.198-2.072 2.402-2.072h13.53c.83 0 1.546.62 2.385 2.123l1.327 2.434c.013.025.026.044.04.068l.424.776h-.958a3.898 3.898 0 00-7.542 0H28.502l1.858-3.296zm16.837 3.296h-2.856a1.735 1.735 0 012.856 0zm-18.19 13.424H27.62v-.926h1.389v.926zm-2.573-3.086a.289.289 0 01-.279-.286c0-.047-.003-.093-.008-.14l-.789-6.23c.024-.734.472-1.47 1.212-1.528.027.002.054.006.082.006h25.657c.801 0 1.306.776 1.333 1.52l-.823 6.223c-.006.05-.01.1-.01.149a.289.289 0 01-.279.286H26.434z" fill="#8A1A10"/><path d="M44.306 35.488h-9.612a1.08 1.08 0 100 2.16h9.612a1.08 1.08 0 000-2.16zM29.05 32.911a2.862 2.862 0 100 5.725 2.862 2.862 0 000-5.725zm0 3.565a.701.701 0 110-1.403.701.701 0 010 1.403zm20.9-3.565a2.862 2.862 0 100 5.724 2.862 2.862 0 000-5.724zm0 3.565a.702.702 0 110-1.403.702.702 0 010 1.403z" fill="#8A1A10"/></svg>
